packages/kaspersky-hexa-ui-icons/src/iconsSVGs/16/Browser.svg

<svg width="16" height="16" viewBox="0 0 16 16" fill="none" xmlns="http://www.w3.org/2000/svg">
<path fill-rule="evenodd" clip-rule="evenodd" d="M1 4.3125C1 3.20793 1.89543 2.3125 3 2.3125H13C14.1046 2.3125 15 3.20793 15 4.3125V11.6875C15 12.7921 14.1046 13.6875 13 13.6875H3C1.89543 13.6875 1 12.7921 1 11.6875V4.3125ZM2.3 4.47197V11.6875C2.3 12.0741 2.6134 12.3875 3 12.3875H13C13.3866 12.3875 13.7 12.0741 13.7 11.6875V4.47197H2.3Z" fill="black"/>
</svg>

<svg xmlns="http://www.w3.org/2000/svg" width="16" height="16" fill="none" viewBox="0 0 16 16"><path fill="#000" fill-rule="evenodd" d="M1 4.3125c0-1.1046.8954-2 2-2h10c1.1046 0 2 .8954 2 2v7.375c0 1.1046-.8954 2-2 2H3c-1.1046 0-2-.8954-2-2zm1.3.1595v7.2155a.7.7 0 0 0 .7.7h10a.7.7 0 0 0 .7-.7V4.472z"/></svg>
